svg/pen.svg

<svg xmlns="http://www.w3.org/2000/svg" viewBox="0 0 64 64" enable-background="new 0 0 64 64"><style type="text/css">.st0{fill:#333333;}</style><title>pen</title><desc>Created with Sketch.</desc><path class="st0" d="M62.9 7.2l-5.7-5.7c-.9-.9-2.2-1-2.8 0l-31.1 28.3-2.8 2.8-4.8 9.7-8.6 5.2-6.4 16.3 16.3-6.4 5.2-8.6 9.7-4.8 2.8-2.8 28.2-31.2c1-.6 1-1.9 0-2.8zm-48 48.1l-8 3.8 5.9-5.9.7-.7c.4-.4.4-1 0-1.4-.4-.4-1-.4-1.4 0l-.7.7-5.9 5.9 3.8-8 7.3-4 2.4 2.4-4.1 7.2zm6.4-10.6l-1.6-1.6 1.9-3.8 3.5 3.5-3.8 1.9zm7.7-3.6l-5.7-5.7 2.8-2.8 5.7 5.7-2.8 2.8zm5.7-5.6l-5.7-5.7 26.9-24 2.8 2.8-24 26.9z"/></svg>

<?xml version="1.0" encoding="utf-8"?>
<!-- Generator: Adobe Illustrator 21.0.0, SVG Export Plug-In . SVG Version: 6.00 Build 0)  -->
<svg version="1.1" id="Layer_1" xmlns="http://www.w3.org/2000/svg" xmlns:xlink="http://www.w3.org/1999/xlink" x="0px" y="0px"
	 viewBox="0 0 64 64" style="enable-background:new 0 0 64 64;" xml:space="preserve">
<style type="text/css">
	.st0{fill:#333333;}
</style>
<title>pen</title>
<desc>Created with Sketch.</desc>
<path class="st0" d="M62.9,7.2l-5.7-5.7c-0.9-0.9-2.2-1-2.8,0L23.3,29.8l-2.8,2.8l-4.8,9.7l-8.6,5.2L0.7,63.8L17,57.4l5.2-8.6
	l9.7-4.8l2.8-2.8L62.9,10C63.9,9.4,63.9,8.1,62.9,7.2z M14.9,55.3l-8,3.8l5.9-5.9l0.7-0.7c0.4-0.4,0.4-1,0-1.4c-0.4-0.4-1-0.4-1.4,0
	l-0.7,0.7l-5.9,5.9l3.8-8h0l7.3-4l2.4,2.4L14.9,55.3z M21.3,44.7l-1.6-1.6l1.9-3.8l3.5,3.5L21.3,44.7z M29,41.1l-5.7-5.7l2.8-2.8
	l5.7,5.7L29,41.1z M34.7,35.5L29,29.8l26.9-24l2.8,2.8L34.7,35.5z"/>
</svg>
